static/images/mobile/copyright/wikipedia-wordmark-dty.svg

<?xml version="1.0" encoding="UTF-8"?>
<svg width="120px" height="25px" viewBox="0 0 120 25" version="1.1" xmlns="http://www.w3.org/2000/svg" xmlns:xlink="http://www.w3.org/1999/xlink">
    <title>wikipedia-wordmark-dty</title>
    <g id="Page-1" stroke="none" stroke-width="1" fill="none" fill-rule="evenodd">
        <path d="M120,7.16213125 L120,8.69687446 L116.045544,8.69687446 L116.045544,24.214831 L114.248062,24.214831 L114.248062,8.69687446 L108.855616,8.69687446 L108.855616,24.214831 L107.058122,24.214831 L107.058122,18.9284921 C105.62014,20.2927107 104.062323,20.9748201 102.384671,20.9748201 C100.611153,20.9748201 99.1192407,20.3779749 97.9089348,19.1842845 C96.6986288,17.9905941 96.0934758,16.541115 96.0934758,14.8358473 C97.3756809,14.8358473 98.4421878,14.5971114 99.2929966,14.1196397 C100.155792,13.6421606 100.587189,12.971421 100.587189,12.107421 C100.587189,10.9705685 99.9880265,9.83371963 98.7897012,8.69687446 L92.498507,8.69687446 L92.498507,13.1305795 L85.8478175,13.1305795 C85.4883211,13.1305795 85.3085729,13.3011077 85.3085729,13.6421642 C85.3085729,14.1310021 85.6560863,14.7392134 86.351113,15.4667981 C87.0581235,16.1830094 87.6692681,16.541115 88.1845466,16.541115 C88.5560268,16.541115 89.0952718,16.427432 89.8022816,16.2000659 C90.5092921,15.9726924 91.0485371,15.8590057 91.4200166,15.8590057 C92.1869432,15.8590057 92.8280458,16.1261642 93.3433243,16.6604811 C93.8586028,17.1948054 94.116242,17.837126 94.116242,18.587443 C94.116242,20.0539712 93.594972,21.3044994 92.5524319,22.3390276 C91.5218741,23.3621898 90.2456606,23.8737708 88.7237912,23.8737708 C86.7585424,23.8737708 84.8951512,23.1916652 83.1336175,21.8274539 C81.3840669,20.4518692 79.9520716,18.6329147 78.8376317,16.3705905 L80.2756185,15.5179566 C81.2702263,17.5188017 82.5164815,19.1274393 84.014384,20.3438692 C85.5242703,21.5602918 87.0940727,22.1685031 88.7237912,22.1685031 C89.7303821,22.1685031 90.5811912,21.8160805 91.2762187,21.1112353 C91.9712454,20.4063901 92.3187588,19.565126 92.3187588,18.587443 C92.3187588,18.2463865 92.2408677,17.9905941 92.0850857,17.8200659 C91.9412874,17.6495376 91.7195977,17.5642735 91.4200166,17.5642735 C91.0485371,17.5642735 90.5092921,17.6779602 89.8022816,17.9053337 C89.0952718,18.1326998 88.5560268,18.2463828 88.1845466,18.2463828 C87.2258887,18.2463828 86.2073147,17.7063828 85.1288247,16.6263828 C84.0503339,15.5463755 83.5110885,14.551636 83.5110885,13.6421642 C83.5110885,13.0168964 83.7327782,12.4939456 84.1761576,12.0733117 C84.63152,11.6413117 85.18874,11.4253117 85.8478175,11.4253117 L90.7010238,11.4253117 L90.7010238,8.69687446 L75.6381097,8.69687446 L75.6381097,24.214831 L73.8406253,24.214831 L73.8406253,8.69687446 L68.4122264,8.69687446 L68.4122264,24.214831 L66.6147432,24.214831 L66.6147432,17.7348091 C65.5362524,18.7579712 64.3379299,19.2695523 63.0197756,19.2695523 C61.6776544,19.2695523 60.5332564,18.8489184 59.5865816,18.0076506 C58.6399068,17.1663828 58.1665693,16.109115 58.1665693,14.8358473 L58.1665693,8.69687446 L53.9245119,8.69687446 L53.9245119,24.214831 L52.1270275,24.214831 L52.1270275,8.69687446 L40.2636343,8.69687446 L40.2636343,13.3011041 C41.0904762,11.9368928 42.3487144,11.2547872 44.0383489,11.2547872 C45.2366719,11.2547872 46.2252882,11.709523 47.0041978,12.6189947 C47.7831075,13.5171077 48.1725623,14.5971114 48.1725623,15.8590057 C48.1725623,18.12133 47.0341559,20.1676542 44.7573429,21.9979785 L43.1396079,20.9748201 C45.2965879,19.5082845 46.3750779,17.803013 46.3750779,15.8590057 C46.3750779,15.0973227 46.1593802,14.4265831 45.7279846,13.8467871 C45.2965883,13.2556323 44.7333764,12.9600549 44.0383489,12.9600549 C43.163574,12.9600549 42.3786732,13.2670021 41.6836465,13.8808964 C41.0006021,14.4947908 40.5272647,15.2678472 40.2636343,16.2000659 L40.2636343,24.214831 L38.4661499,24.214831 L38.4661499,19.0990167 C37.543442,20.1221788 36.3451198,20.6337599 34.8711834,20.6337599 C33.5769945,20.6337599 32.4745376,20.2017599 31.5638127,19.3377599 C30.6530878,18.4737526 30.1977254,17.4278546 30.1977254,16.2000659 C30.1977254,14.8017416 30.7189958,13.6307908 31.7615367,12.6872134 C32.8160598,11.7322626 34.092273,11.2547872 35.5901763,11.2547872 C36.5009011,11.2547872 37.1000622,11.3684702 37.3876595,11.5958363 L37.0281631,13.3011041 C36.5967668,13.073738 36.1174378,12.9600549 35.5901763,12.9600549 C34.6075523,12.9600549 33.762735,13.2726851 33.0557245,13.8979456 C32.3487139,14.5232134 31.9952086,15.2905868 31.9952086,16.2000659 C31.9952086,16.9617489 32.2708229,17.6097489 32.8220513,18.1440658 C33.3852628,18.6670167 34.0683069,18.9284921 34.8711834,18.9284921 C35.6261262,18.9284921 36.3031783,18.7465978 36.9023398,18.3828091 C37.5015005,18.0076469 38.0227705,17.4505904 38.4661499,16.7116396 L38.4661499,8.69687446 L26.4589599,8.69687446 L26.4589599,24.214831 L24.6614767,24.214831 L24.6614767,8.69687446 L19.2690247,8.69687446 L19.2690247,24.214831 L17.4715415,24.214831 L17.4715415,18.7579675 C16.4769336,19.8948127 15.218695,20.4632353 13.6968257,20.4632353 C12.2109062,20.4632353 10.9406845,20.0255486 9.88616065,19.1501752 C8.83163676,18.2748091 8.30437481,17.1777526 8.30437481,15.8590057 C8.30437481,14.5402662 8.83163676,13.4432097 9.88616065,12.5678363 C10.9406845,11.6924702 12.2109062,11.2547872 13.6968257,11.2547872 C14.5835844,11.2547872 15.3624941,11.4821532 16.0335547,11.9368854 L15.1348125,13.3011041 C14.67945,12.9600476 14.2001211,12.7895193 13.6968257,12.7895193 C12.7261847,12.7895193 11.8813674,13.0851004 11.1623738,13.6762625 C10.4553633,14.2674247 10.101858,14.9950057 10.101858,15.8590057 C10.101858,16.6889074 10.4553633,17.3823865 11.1623738,17.939443 C11.8813674,18.485126 12.7261847,18.7579675 13.6968257,18.7579675 C14.4397854,18.7579675 15.122829,18.5476506 15.7459566,18.1270167 C16.381068,17.6950167 16.956263,17.0526998 17.4715415,16.2000659 L17.4715415,8.69687446 L4.6015585,8.69687446 L4.6015585,24.214831 L2.80407528,24.214831 L2.80407528,8.69687446 L0,8.69687446 L0,7.16213125 L2.80407528,7.16213125 C2.44457809,6.71876517 2.26482949,5.97981801 2.26482949,4.94528979 C2.26482949,3.5469655 2.82804101,2.37601099 3.95446403,1.43242625 C5.09287089,0.477475417 6.44697551,0 8.01677791,0 C9.95805978,0 11.8274425,0.613898017 13.6249261,1.84169405 C15.4343936,3.06949009 16.9802295,4.72928611 18.2624338,6.82108212 L16.2852024,6.82108212 C15.2905946,5.20675784 14.062314,3.92212029 12.6003607,2.96716945 C11.1503904,2.01221862 9.62252949,1.5347432 8.01677791,1.5347432 C6.93828712,1.5347432 6.00958689,1.85874688 5.23067722,2.50675423 C4.45176833,3.15475421 4.06231388,3.9675994 4.06231388,4.94528979 C4.06231388,5.97981801 4.24206209,6.71876517 4.6015585,7.16213125 L24.6614767,7.16213125 C24.3019803,6.71876517 24.1222321,5.97981801 24.1222321,4.94528979 C24.1222321,3.5469655 24.6854436,2.37601099 25.8118666,1.43242625 C26.9502727,0.477475417 28.3043769,0 29.8741793,0 C31.815462,0 33.6848451,0.613898017 35.4823287,1.84169405 C37.2917954,3.06949009 38.8376313,4.72928611 40.1198364,6.82108212 L38.1426038,6.82108212 C37.1479968,5.20675784 35.9197166,3.92212029 34.4577633,2.96716945 C33.007793,2.01221862 31.4799317,1.5347432 29.8741793,1.5347432 C28.7956893,1.5347432 27.8669895,1.85874688 27.0880798,2.50675423 C26.3091701,3.15475421 25.9197153,3.9675994 25.9197153,4.94528979 C25.9197153,5.97981801 26.0994635,6.71876517 26.4589599,7.16213125 L52.1270275,7.16213125 C51.7675311,6.71876517 51.5877829,5.97981801 51.5877829,4.94528979 C51.5877829,3.5469655 52.1509944,2.37601099 53.2774174,1.43242625 C54.4158235,0.477475417 55.7699278,0 57.3397302,0 C59.2810128,0 61.1503959,0.613898017 62.9478795,1.84169405 C64.7573462,3.06949009 66.3031821,4.72928611 67.5853872,6.82108212 L65.6081546,6.82108212 C64.6135476,5.20675784 63.3852674,3.92212029 61.9233141,2.96716945 C60.4733438,2.01221862 58.9454825,1.5347432 57.3397302,1.5347432 C56.2612401,1.5347432 55.3325403,1.85874688 54.5536306,2.50675423 C53.774721,3.15475421 53.3852661,3.9675994 53.3852661,4.94528979 C53.3852661,5.97981801 53.5650147,6.71876517 53.9245119,7.16213125 L73.8406253,7.16213125 C73.4811289,6.71876517 73.3013806,5.97981801 73.3013806,4.94528979 C73.3013806,3.5469655 73.8645922,2.37601099 74.9910152,1.43242625 C76.1294213,0.477475417 77.4835255,0 79.0533279,0 C80.9946105,0 82.8639937,0.613898017 84.6614773,1.84169405 C86.470944,3.06949009 88.0167799,4.72928611 89.298985,6.82108212 L87.3217535,6.82108212 C86.3271457,5.20675784 85.0988651,3.92212029 83.6369118,2.96716945 C82.1869416,2.01221862 80.6590802,1.5347432 79.0533279,1.5347432 C77.9748379,1.5347432 77.046138,1.85874688 76.2672284,2.50675423 C75.4883187,3.15475421 75.0988639,3.9675994 75.0988639,4.94528979 C75.0988639,5.97981801 75.2786125,6.71876517 75.6381097,7.16213125 L120,7.16213125 Z M107.058122,8.69687446 L100.946681,8.69687446 C101.905341,9.79962135 102.384671,10.9364702 102.384671,12.107421 C102.384671,13.1305832 101.965256,14.0230058 101.126427,14.7846888 C100.299587,15.5350057 99.2810144,16.0067981 98.0707084,16.2000659 C98.2384735,17.0981715 98.7297855,17.8371224 99.5446444,18.4169184 C100.371485,18.985341 101.318161,19.2695523 102.384671,19.2695523 C104.409834,19.2695523 105.967651,18.3600732 107.058122,16.541115 L107.058122,8.69687446 Z M66.6147432,8.69687446 L59.9640537,8.69687446 L59.9640537,14.8358473 C59.9640537,15.5975377 60.2636341,16.2455413 60.8627948,16.7798583 C61.4619562,17.3028017 62.1809498,17.5642735 63.0197756,17.5642735 C64.637511,17.5642735 65.8358335,16.7684811 66.6147432,15.1768964 L66.6147432,8.69687446 Z" id="wikipedia-wordmark-dty" fill="#000000" fill-rule="nonzero"></path>
    </g>
</svg>

<svg xmlns="http://www.w3.org/2000/svg" width="120" height="25"><path fill="#000" fill-rule="nonzero" d="M120 7.162v1.535h-3.954v15.518h-1.798V8.697h-5.392v15.518h-1.798v-5.287c-1.438 1.365-2.996 2.047-4.673 2.047-1.774 0-3.266-.597-4.476-1.79-1.21-1.194-1.816-2.644-1.816-4.35 1.283 0 2.35-.238 3.2-.715.863-.478 1.294-1.149 1.294-2.013 0-1.136-.599-2.273-1.797-3.41h-6.291v4.434h-6.651c-.36 0-.54.17-.54.511 0 .489.348 1.097 1.043 1.825.707.716 1.318 1.074 1.834 1.074.371 0 .91-.114 1.617-.34.707-.228 1.247-.342 1.618-.342.767 0 1.408.267 1.923.801.516.535.773 1.177.773 1.927 0 1.467-.521 2.717-1.564 3.752-1.03 1.023-2.306 1.535-3.828 1.535-1.965 0-3.829-.682-5.59-2.047-1.75-1.375-3.182-3.194-4.296-5.456l1.438-.853c.994 2 2.24 3.61 3.738 4.826 1.51 1.216 3.08 1.825 4.71 1.825 1.006 0 1.857-.353 2.552-1.058.695-.705 1.043-1.546 1.043-2.524 0-.34-.078-.596-.234-.767-.144-.17-.365-.256-.665-.256-.371 0-.91.114-1.618.341-.707.228-1.246.341-1.617.341-.96 0-1.978-.54-3.056-1.62-1.079-1.08-1.618-2.074-1.618-2.984 0-.625.222-1.148.665-1.569.456-.432 1.013-.648 1.672-.648H90.7V8.697H75.638v15.518h-1.797V8.697h-5.429v15.518h-1.797v-6.48c-1.079 1.023-2.277 1.535-3.595 1.535-1.342 0-2.487-.421-3.433-1.262-.947-.842-1.42-1.899-1.42-3.172v-6.14h-4.242v15.519h-1.798V8.697H40.264V13.3c.826-1.364 2.085-2.046 3.774-2.046 1.199 0 2.187.455 2.966 1.364.78.898 1.169 1.978 1.169 3.24 0 2.262-1.139 4.309-3.416 6.139l-1.617-1.023c2.157-1.467 3.235-3.172 3.235-5.116 0-.762-.216-1.432-.647-2.012-.431-.591-.995-.887-1.69-.887-.874 0-1.66.307-2.354.92-.683.615-1.157 1.388-1.42 2.32v8.015h-1.798v-5.116c-.923 1.023-2.12 1.535-3.595 1.535-1.294 0-2.396-.432-3.307-1.296-.91-.864-1.366-1.91-1.366-3.138 0-1.398.521-2.57 1.564-3.513 1.054-.955 2.33-1.432 3.828-1.432.91 0 1.51.113 1.798.34l-.36 1.706a3.036 3.036 0 0 0-1.438-.34c-.982 0-1.827.312-2.534.937-.707.625-1.06 1.393-1.06 2.302 0 .762.275 1.41.826 1.944.563.523 1.246.784 2.05.784.754 0 1.431-.181 2.03-.545.6-.375 1.12-.932 1.564-1.671V8.697H26.46v15.518h-1.798V8.697H19.27v15.518h-1.797v-5.457c-.995 1.137-2.253 1.705-3.775 1.705-1.486 0-2.756-.437-3.81-1.313-1.055-.875-1.583-1.972-1.583-3.291s.528-2.416 1.582-3.291c1.055-.876 2.325-1.313 3.81-1.313.888 0 1.666.227 2.338.682l-.9 1.364c-.455-.341-.934-.511-1.437-.511-.97 0-1.816.295-2.535.886-.707.591-1.06 1.319-1.06 2.183 0 .83.353 1.523 1.06 2.08.72.546 1.564.819 2.535.819.743 0 1.426-.21 2.049-.631.635-.432 1.21-1.074 1.726-1.927V8.697H4.602v15.518H2.804V8.697H0V7.162h2.804c-.36-.443-.54-1.182-.54-2.217 0-1.398.564-2.569 1.69-3.513C5.093.477 6.447 0 8.017 0c1.941 0 3.81.614 5.608 1.842 1.81 1.227 3.355 2.887 4.637 4.98h-1.977c-.994-1.615-2.223-2.9-3.685-3.855-1.45-.955-2.977-1.432-4.583-1.432-1.079 0-2.007.324-2.786.972-.78.648-1.169 1.46-1.169 2.438 0 1.035.18 1.774.54 2.217h20.06c-.36-.443-.54-1.182-.54-2.217 0-1.398.563-2.569 1.69-3.513C26.95.477 28.304 0 29.874 0c1.941 0 3.81.614 5.608 1.842 1.81 1.227 3.356 2.887 4.638 4.98h-1.977c-.995-1.615-2.223-2.9-3.685-3.855-1.45-.955-2.978-1.432-4.584-1.432-1.078 0-2.007.324-2.786.972-.779.648-1.168 1.46-1.168 2.438 0 1.035.18 1.774.539 2.217h25.668c-.36-.443-.54-1.182-.54-2.217 0-1.398.564-2.569 1.69-3.513C54.416.477 55.77 0 57.34 0c1.941 0 3.81.614 5.608 1.842 1.81 1.227 3.355 2.887 4.637 4.98h-1.977c-.994-1.615-2.223-2.9-3.685-3.855-1.45-.955-2.978-1.432-4.583-1.432-1.079 0-2.007.324-2.786.972-.78.648-1.169 1.46-1.169 2.438 0 1.035.18 1.774.54 2.217H73.84c-.36-.443-.54-1.182-.54-2.217 0-1.398.564-2.569 1.69-3.513C76.129.477 77.484 0 79.053 0c1.942 0 3.811.614 5.608 1.842 1.81 1.227 3.356 2.887 4.638 4.98h-1.977c-.995-1.615-2.223-2.9-3.685-3.855-1.45-.955-2.978-1.432-4.584-1.432-1.078 0-2.007.324-2.786.972-.779.648-1.168 1.46-1.168 2.438 0 1.035.18 1.774.54 2.217H120Zm-12.942 1.535h-6.111c.958 1.103 1.438 2.24 1.438 3.41 0 1.024-.42 1.916-1.259 2.678-.826.75-1.845 1.222-3.055 1.415.167.898.659 1.637 1.474 2.217.826.568 1.773.853 2.84.853 2.025 0 3.583-.91 4.673-2.729V8.697Zm-40.443 0h-6.65v6.139c0 .762.299 1.41.898 1.944.599.523 1.318.784 2.157.784 1.618 0 2.816-.796 3.595-2.387v-6.48Z"/></svg>
